;FLAVOR:Marlin
;TIME:1814
;Filament used: 1.04416m
;Layer height: 0.2
;MINX:12.467
;MINY:21.047
;MINZ:0.2
;MAXX:44.067
;MAXY:71.621
;MAXZ:16
;Generated with Cura_SteamEngine 5.4.0
M140 S65
M105
M190 S65
M104 S205
M105
M109 S205
M82 ;absolute extrusion mode
; Ender 3 Custom Start G-code
G92 E0 ; Reset Extruder
G28 ; Home all axes
G1 Z2.0 F3000 ; Move Z Axis up little to prevent scratching of Heat Bed
G1 X0.1 Y20 Z0.3 F5000.0 ; Move to start position
G1 X0.1 Y200.0 Z0.3 F1500.0 E15 ; Draw the first line
G1 X0.4 Y200.0 Z0.3 F5000.0 ; Move to side a little
G1 X0.4 Y20 Z0.3 F1500.0 E30 ; Draw the second line
G92 E0 ; Reset Extruder
G1 Z2.0 F3000 ; Move Z Axis up little to prevent scratching of Heat Bed
G1 X5 Y20 Z0.3 F5000.0 ; Move over to prevent blob squish
G92 E0
G92 E0
G1 F2700 E-6
;LAYER_COUNT:80
;LAYER:0
M107
G0 F6000 X15.547 Y22.611 Z0.2
;TYPE:SKIRT
G1 F2700 E0
G1 F1200 X17.57 Y21.404 E0.07835
G1 X19.288 Y21.122 E0.13626
G1 X37.115 Y21.047 E0.72919
G1 X39.014 Y21.513 E0.79423
G1 X41.059 Y22.569 E0.87078
G1 X42.501 Y24.129 E0.94143
G1 X43.443 Y25.754 E1.0039
G1 X43.798 Y26.596 E1.0343
G1 X44.067 Y28.854 E1.10993
G1 X44.011 Y53.29 E1.92268
G1 X43.815 Y54.638 E1.96798
G1 X43.296 Y56.521 E2.03295
G1 X42.422 Y58.183 E2.0954
G1 X41.114 Y59.932 E2.16804
G1 X39.814 Y61.159 E2.2275
G1 X38.439 Y62.156 E2.28399
G1 X36.353 Y63.045 E2.35941
G1 X34.965 Y63.399 E2.40705
G1 X34.771 Y64.027 E2.42891
G1 X33.877 Y65.98 E2.50035
G1 X32.297 Y67.951 E2.58437
G1 X31.201 Y68.965 E2.63403
G1 X29.565 Y70.14 E2.70102
G1 X27.819 Y70.886 E2.76417
G1 X25.404 Y71.485 E2.84693
G1 X23.871 Y71.618 E2.89811
G1 X19.414 Y71.621 E3.04635
G1 X17.518 Y71.155 E3.11129
G1 X15.49 Y70.102 E3.18729
G1 X14.031 Y68.541 E3.25836
G1 X12.824 Y66.518 E3.33671
G1 X12.542 Y64.8 E3.39461
G1 X12.467 Y27.994 E4.61879
G1 X12.933 Y26.098 E4.68373
G1 X13.986 Y24.07 E4.75973
G1 X15.547 Y22.611 E4.8308
G0 F6000 X15.786 Y22.935
G1 F1200 X17.71 Y21.787 E4.90531
G1 X19.353 Y21.517 E4.96069
G1 X37.07 Y21.447 E5.54997
G1 X38.873 Y21.89 E5.61172
G1 X40.81 Y22.89 E5.68422
G1 X42.178 Y24.37 E5.75126
G1 X43.074 Y25.909 E5.81049
G1 X43.408 Y26.701 E5.83908
G1 X43.667 Y28.853 E5.91117
G1 X43.615 Y53.233 E6.72205
G1 X43.429 Y54.532 E6.7657
G1 X42.921 Y56.375 E6.82928
G1 X42.068 Y57.997 E6.89023
G1 X40.839 Y59.642 E6.95853
G1 X39.579 Y60.835 E7.01624
G1 X38.241 Y61.805 E7.07121
G1 X36.254 Y62.657 E7.14312
G1 X34.647 Y63.067 E7.19828
G1 X34.407 Y63.86 E7.22583
G1 X33.532 Y65.771 E7.29574
G1 X32.025 Y67.657 E7.37604
G1 X30.929 Y68.671 E7.4257
G1 X29.368 Y69.789 E7.48956
G1 X27.662 Y70.518 E7.55126
G1 X25.369 Y71.086 E7.62983
G1 X23.836 Y71.219 E7.68101
G1 X19.46 Y71.221 E7.82656
G1 X17.661 Y70.779 E7.88817
G1 X15.735 Y69.779 E7.96035
G1 X14.355 Y68.302 E8.02758
G1 X13.207 Y66.378 E8.1021
G1 X12.937 Y64.735 E8.15748
G1 X12.867 Y28.04 E9.37796
G1 X13.309 Y26.241 E9.43958
G1 X14.309 Y24.315 E9.51176
G1 X15.786 Y22.935 E9.57899
G0 F6000 X16.028 Y23.256
G1 F1200 X17.848 Y22.17 E9.64948
G1 X19.418 Y21.912 E9.7024
G1 X37.025 Y21.847 E10.28801
G1 X38.73 Y22.266 E10.34641
G1 X40.562 Y23.212 E10.41499
G1 X41.856 Y24.612 E10.47839
G1 X42.705 Y26.064 E10.53434
G1 X43.018 Y26.806 E10.56112
G1 X43.267 Y28.852 E10.62967
G1 X43.219 Y53.177 E11.43873
G1 X43.043 Y54.426 E11.48068
G1 X42.546 Y56.231 E11.54295
G1 X41.747 Y57.758 E11.60027
G1 X40.563 Y59.352 E11.66631
G1 X39.344 Y60.511 E11.72226
G1 X38.043 Y61.454 E11.7757
G1 X36.096 Y62.289 E11.84616
G1 X34.542 Y62.681 E11.89947
G1 X34.339 Y62.703 E11.90626
G1 X34.024 Y63.744 E11.94243
G1 X33.19 Y65.559 E12.00887
G1 X31.753 Y67.363 E12.08558
G1 X30.657 Y68.377 E12.13524
G1 X29.17 Y69.438 E12.196
G1 X27.505 Y70.15 E12.25623
G1 X25.334 Y70.687 E12.33061
G1 X23.801 Y70.82 E12.38179
G1 X19.507 Y70.821 E12.52461
G1 X17.803 Y70.402 E12.58297
G1 X15.98 Y69.456 E12.65128
G1 X14.676 Y68.06 E12.71482
G1 X13.59 Y66.24 E12.78531
G1 X13.332 Y64.67 E12.83823
G1 X13.267 Y28.087 E14.05499
G1 X13.686 Y26.383 E14.11335
G1 X14.632 Y24.56 E14.18166
G1 X16.028 Y23.256 E14.2452
G0 F6000 X16.27 Y23.577
G1 F1200 X17.986 Y22.553 E14.31166
G1 X19.483 Y22.307 E14.36212
G1 X36.98 Y22.247 E14.94408
G1 X38.587 Y22.642 E14.99912
G1 X40.314 Y23.534 E15.06377
G1 X41.535 Y24.854 E15.12357
G1 X42.336 Y26.22 E15.17624
G1 X42.628 Y26.912 E15.20122
G1 X42.867 Y28.851 E15.2662
G1 X42.823 Y53.122 E16.07346
G1 X42.657 Y54.32 E16.11368
G1 X42.171 Y56.085 E16.17457
G1 X41.426 Y57.519 E16.22832
G1 X40.242 Y59.113 E16.29436
G1 X39.109 Y60.187 E16.34629
G1 X37.845 Y61.103 E16.39821
G1 X35.938 Y61.921 E16.46722
G1 X34.5 Y62.283 E16.51654
G1 X34.032 Y62.333 E16.5322
G1 X33.66 Y63.577 E16.57538
G1 X32.846 Y65.35 E16.64027
G1 X31.481 Y67.069 E16.71328
G1 X30.385 Y68.083 E16.76294
G1 X28.973 Y69.087 E16.82056
G1 X27.348 Y69.782 E16.87935
G1 X25.299 Y70.288 E16.94955
G1 X23.766 Y70.421 E17.00072
G1 X19.553 Y70.421 E17.14085
G1 X17.946 Y70.026 E17.19589
G1 X16.225 Y69.133 E17.26038
G1 X14.997 Y67.818 E17.32022
G1 X13.973 Y66.102 E17.38668
G1 X13.727 Y64.605 E17.43714
G1 X13.667 Y28.133 E18.65021
G1 X14.062 Y26.526 E18.70525
G1 X14.955 Y24.805 E18.76973
G1 X16.27 Y23.577 E18.82958
G0 F6000 X16.512 Y23.898
G1 F1200 X18.124 Y22.936 E18.89201
G1 X19.548 Y22.702 E18.94001
G1 X36.934 Y22.647 E19.51828
G1 X38.444 Y23.018 E19.56999
G1 X40.066 Y23.856 E19.63071
G1 X41.212 Y25.095 E19.68685
G1 X41.967 Y26.376 E19.7363
G1 X42.238 Y27.018 E19.75948
G1 X42.467 Y28.85 E19.82089
G1 X42.427 Y53.068 E20.62638
G1 X42.271 Y54.214 E20.66485
G1 X41.796 Y55.938 E20.72433
G1 X41.104 Y57.281 E20.77458
G1 X39.966 Y58.823 E20.83832
G1 X38.874 Y59.863 E20.88848
G1 X37.647 Y60.752 E20.93887
G1 X35.78 Y61.553 E21.00644
G1 X34.457 Y61.885 E21.05181
G1 X33.724 Y61.964 E21.07633
G1 X33.296 Y63.41 E21.12649
G1 X32.502 Y65.14 E21.1898
G1 X31.209 Y66.776 E21.25915
G1 X30.153 Y67.757 E21.30709
G1 X28.776 Y68.736 E21.36329
G1 X27.191 Y69.414 E21.42063
G1 X25.264 Y69.89 E21.48665
G1 X23.766 Y70.021 E21.53666
G1 X19.599 Y70.021 E21.67525
G1 X18.089 Y69.65 E21.72697
G1 X16.47 Y68.81 E21.78763
G1 X15.318 Y67.576 E21.84378
G1 X14.356 Y65.964 E21.90622
G1 X14.122 Y64.54 E21.95422
G1 X14.067 Y28.179 E23.16359
G1 X14.438 Y26.669 E23.21531
G1 X15.278 Y25.05 E23.27597
G1 X16.512 Y23.898 E23.33212
G0 F6000 X16.754 Y24.219
G1 F1200 X18.262 Y23.319 E23.39053
G1 X19.613 Y23.097 E23.43607
G1 X36.887 Y23.047 E24.0106
G1 X38.302 Y23.395 E24.05907
G1 X39.818 Y24.178 E24.11582
G1 X40.89 Y25.336 E24.16831
G1 X41.622 Y26.579 E24.21628
G1 X41.848 Y27.122 E24.23585
G1 X42.067 Y28.849 E24.29375
G1 X42.03 Y53.015 E25.09751
G1 X41.885 Y54.108 E25.13418
G1 X41.421 Y55.792 E25.19228
G1 X40.748 Y57.098 E25.24115
G1 X39.689 Y58.534 E25.30049
G1 X38.639 Y59.539 E25.34883
G1 X37.449 Y60.401 E25.39771
G1 X35.622 Y61.185 E25.46383
G1 X34.414 Y61.487 E25.50525
G1 X33.379 Y61.599 E25.53987
G1 X33.339 Y61.854 E25.54846
G1 X32.912 Y63.296 E25.59848
G1 X32.159 Y64.93 E25.65832
G1 X30.936 Y66.484 E25.72409
G1 X29.921 Y67.431 E25.77026
G1 X28.579 Y68.385 E25.82502
G1 X27.034 Y69.046 E25.88092
G1 X25.229 Y69.492 E25.94276
G1 X23.766 Y69.621 E25.99161
G1 X19.646 Y69.621 E26.12864
G1 X18.231 Y69.273 E26.1771
G1 X16.715 Y68.487 E26.2339
G1 X15.639 Y67.334 E26.28635
G1 X14.739 Y65.826 E26.34476
G1 X14.517 Y64.475 E26.3903
G1 X14.467 Y28.226 E27.59595
G1 X14.815 Y26.811 E27.64441
G1 X15.601 Y25.295 E27.70121
G1 X16.754 Y24.219 E27.75366
G0 F6000 X16.996 Y24.54
G1 F1200 X18.4 Y23.702 E27.80805
G1 X19.678 Y23.492 E27.85112
G1 X36.841 Y23.447 E28.42197
G1 X38.159 Y23.771 E28.46711
G1 X39.572 Y24.501 E28.52001
G1 X40.566 Y25.574 E28.56866
G1 X41.277 Y26.782 E28.61528
G1 X41.457 Y27.223 E28.63112
G1 X41.667 Y28.848 E28.68562
G1 X41.633 Y52.962 E29.48765
G1 X41.488 Y54.055 E29.52432
G1 X41.048 Y55.643 E29.57913
G1 X40.392 Y56.915 E29.62673
G1 X39.412 Y58.246 E29.68171
G1 X38.404 Y59.215 E29.72821
G1 X37.251 Y60.05 E29.77556
G1 X35.464 Y60.817 E29.84024
G1 X34.371 Y61.089 E29.8777
G1 X33.027 Y61.234 E29.92266
G1 X32.955 Y61.74 E29.93966
G1 X32.528 Y63.182 E29.98968
G1 X31.816 Y64.719 E30.04602
G1 X30.662 Y66.192 E30.10826
G1 X29.689 Y67.105 E30.15264
G1 X28.382 Y68.034 E30.20597
G1 X26.877 Y68.678 E30.26042
G1 X25.194 Y69.094 E30.31808
G1 X23.766 Y69.221 E30.36576
G1 X19.692 Y69.221 E30.50126
G1 X18.374 Y68.897 E30.54641
G1 X16.96 Y68.164 E30.59938
G1 X15.96 Y67.092 E30.64814
G1 X15.122 Y65.688 E30.70252
G1 X14.912 Y64.41 E30.7456
G1 X14.867 Y28.272 E31.94755
G1 X15.191 Y26.954 E31.9927
G1 X15.924 Y25.54 E32.04567
G1 X16.996 Y24.54 E32.09443
G0 F6000 X17.241 Y24.859
G1 F1200 X18.538 Y24.085 E32.14466
G1 X19.743 Y23.887 E32.18528
G1 X36.795 Y23.847 E32.75243
G1 X38.016 Y24.147 E32.79425
G1 X39.326 Y24.824 E32.8433
G1 X40.242 Y25.812 E32.88811
G1 X40.932 Y26.985 E32.93337
G1 X41.066 Y27.324 E32.9455
G1 X41.267 Y28.847 E32.99659
G1 X41.236 Y52.909 E33.7969
G1 X41.091 Y54.002 E33.83357
G1 X40.675 Y55.493 E33.88505
G1 X40.036 Y56.732 E33.93142
G1 X39.134 Y57.958 E33.98204
G1 X38.169 Y58.891 E34.02669
G1 X37.053 Y59.699 E34.07252
G1 X35.306 Y60.449 E34.13575
G1 X34.328 Y60.691 E34.16926
G1 X32.978 Y60.837 E34.21442
G1 X32.677 Y60.841 E34.22443
G1 X32.571 Y61.628 E34.25085
G1 X32.165 Y63.014 E34.29888
G1 X31.473 Y64.507 E34.35361
G1 X30.388 Y65.9 E34.41234
G1 X29.415 Y66.813 E34.45672
G1 X28.188 Y67.682 E34.50673
G1 X26.72 Y68.31 E34.55983
G1 X25.158 Y68.696 E34.61335
G1 X23.766 Y68.821 E34.65983
G1 X19.738 Y68.821 E34.7938
G1 X18.517 Y68.521 E34.83562
G1 X17.207 Y67.842 E34.8847
G1 X16.279 Y66.847 E34.92995
G1 X15.505 Y65.55 E34.98019
G1 X15.307 Y64.345 E35.0208
G1 X15.267 Y28.318 E36.21907
G1 X15.567 Y27.097 E36.26089
G1 X16.246 Y25.787 E36.30996
G1 X17.241 Y24.859 E36.35522
G0 F6000 X17.483 Y25.181
G1 F1200 X18.678 Y24.468 E36.4015
G1 X19.808 Y24.282 E36.43959
G1 X36.749 Y24.247 E37.00305
G1 X37.873 Y24.523 E37.04154
G1 X39.08 Y25.147 E37.08674
G1 X39.919 Y26.052 E37.12778
G1 X40.56 Y27.132 E37.16955
G1 X40.677 Y27.427 E37.18011
G1 X40.867 Y28.847 E37.22776
G1 X40.839 Y52.856 E38.0263
G1 X40.694 Y53.949 E38.06297
G1 X40.3 Y55.347 E38.11128
G1 X39.713 Y56.496 E38.1542
G1 X38.855 Y57.671 E38.20259
G1 X37.934 Y58.567 E38.24533
G1 X36.855 Y59.348 E38.28963
G1 X35.148 Y60.081 E38.35142
G1 X34.285 Y60.293 E38.38097
G1 X32.935 Y60.439 E38.42614
G1 X32.324 Y60.444 E38.44646
G1 X32.187 Y61.517 E38.48244
G1 X31.802 Y62.846 E38.52846
G1 X31.129 Y64.298 E38.58169
G1 X30.113 Y65.609 E38.63685
G1 X29.184 Y66.486 E38.67934
G1 X27.99 Y67.331 E38.72799
G1 X26.563 Y67.942 E38.77962
G1 X25.122 Y68.298 E38.82899
G1 X23.766 Y68.421 E38.87428
G1 X19.784 Y68.421 E39.00672
G1 X18.66 Y68.145 E39.04522
G1 X17.454 Y67.52 E39.09039
G1 X16.601 Y66.605 E39.132
G1 X15.888 Y65.41 E39.17828
G1 X15.702 Y64.28 E39.21637
G1 X15.667 Y28.364 E40.41094
G1 X15.943 Y27.24 E40.44944
G1 X16.568 Y26.034 E40.49462
G1 X17.483 Y25.181 E40.53622
G0 F6000 X17.725 Y25.503
G1 F1200 X18.818 Y24.851 E40.57855
G1 X19.873 Y24.677 E40.61412
G1 X36.703 Y24.647 E41.17389
G1 X37.73 Y24.899 E41.20906
G1 X38.834 Y25.47 E41.2504
G1 X39.598 Y26.293 E41.28775
G1 X40.188 Y27.28 E41.32599
G1 X40.288 Y27.532 E41.33501
G1 X40.467 Y28.847 E41.37915
G1 X40.442 Y52.803 E42.17593
G1 X40.297 Y53.896 E42.2126
G1 X39.926 Y55.2 E42.25769
G1 X39.389 Y56.261 E42.29725
G1 X38.575 Y57.385 E42.3434
G1 X37.699 Y58.243 E42.38419
G1 X36.655 Y58.999 E42.42706
G1 X35.051 Y59.693 E42.48519
G1 X34.242 Y59.895 E42.51292
G1 X32.892 Y60.041 E42.55808
G1 X31.946 Y60.046 E42.58955
G1 X31.94 Y60.295 E42.59783
G1 X31.79 Y61.466 E42.6371
G1 X31.439 Y62.678 E42.67907
G1 X30.785 Y64.089 E42.73079
G1 X29.837 Y65.319 E42.78244
G1 X28.953 Y66.159 E42.823
G1 X27.794 Y66.979 E42.87022
G1 X26.405 Y67.574 E42.92048
G1 X25.085 Y67.9 E42.9657
G1 X23.766 Y68.021 E43.00976
G1 X19.831 Y68.021 E43.14064
G1 X18.802 Y67.768 E43.17588
G1 X17.701 Y67.198 E43.21712
G1 X16.923 Y66.363 E43.25508
G1 X16.271 Y65.27 E43.29741
G1 X16.097 Y64.215 E43.33297
G1 X16.067 Y28.411 E44.52382
G1 X16.32 Y27.382 E44.55906
G1 X16.89 Y26.281 E44.6003
G1 X17.725 Y25.503 E44.63826
G0 F6000 X17.967 Y25.825
G1 F1200 X18.958 Y25.234 E44.67663
G1 X19.938 Y25.072 E44.70967
G1 X36.657 Y25.047 E45.26575
G1 X37.587 Y25.275 E45.29759
G1 X38.589 Y25.793 E45.33511
G1 X39.277 Y26.535 E45.36877
G1 X39.845 Y27.485 E45.40558
G1 X39.898 Y27.634 E45.41084
G1 X40.067 Y28.847 E45.45157
G1 X40.045 Y52.752 E46.24666
G1 X39.912 Y53.786 E46.28133
G1 X39.551 Y55.054 E46.32518
G1 X39.032 Y56.08 E46.36342
G1 X38.294 Y57.1 E46.4053
G1 X37.464 Y57.919 E46.44408
G1 X36.456 Y58.649 E46.48548
G1 X34.952 Y59.305 E46.54005
G1 X34.199 Y59.497 E46.5659
G1 X32.849 Y59.643 E46.61106
G1 X31.552 Y59.647 E46.6542
G1 X31.543 Y60.244 E46.67406
G1 X31.393 Y61.415 E46.71332
G1 X31.076 Y62.51 E46.75124
G1 X30.441 Y63.879 E46.80143
G1 X29.56 Y65.03 E46.84964
G1 X28.722 Y65.832 E46.88822
G1 X27.598 Y66.627 E46.93401
G1 X26.247 Y67.206 E46.9829
G1 X25.048 Y67.502 E47.02397
G1 X23.766 Y67.621 E47.0668
G1 X19.877 Y67.621 E47.19615
G1 X18.945 Y67.392 E47.22807
G1 X17.948 Y66.876 E47.2654
G1 X17.245 Y66.121 E47.29972
G1 X16.654 Y65.13 E47.33809
G1 X16.492 Y64.15 E47.37113
G1 X16.467 Y28.457 E48.55828
G1 X16.696 Y27.525 E48.59021
G1 X17.212 Y26.528 E48.62754
G1 X17.967 Y25.825 E48.66186
G0 F6000 X18.206 Y26.149
G1 F1200 X19.098 Y25.617 E48.6964
G1 X20.003 Y25.467 E48.72691
G1 X36.611 Y25.447 E49.2793
G1 X37.446 Y25.652 E49.30789
G1 X38.343 Y26.115 E49.34147
G1 X38.956 Y26.777 E49.37147
G1 X39.502 Y27.69 E49.40686
G1 X39.667 Y28.847 E49.44573
G1 X39.648 Y52.703 E50.23918
G1 X39.527 Y53.677 E50.27183
G1 X39.177 Y54.907 E50.31436
G1 X38.675 Y55.899 E50.35134
G1 X38.012 Y56.816 E50.38898
G1 X37.229 Y57.595 E50.42571
G1 X36.255 Y58.301 E50.46572
G1 X34.853 Y58.917 E50.51665
G1 X34.1 Y59.109 E50.5425
G1 X32.807 Y59.245 E50.58574
G1 X31.157 Y59.247 E50.64062
G1 X31.146 Y60.193 E50.67209
G1 X30.996 Y61.364 E50.71136
G1 X30.713 Y62.342 E50.74522
G1 X30.097 Y63.669 E50.79388
G1 X29.282 Y64.742 E50.83869
G1 X28.491 Y65.505 E50.87525
G1 X27.402 Y66.275 E50.91961
G1 X26.089 Y66.838 E50.96712
G1 X25.011 Y67.104 E51.00405
G1 X23.766 Y67.221 E51.04564
G1 X19.923 Y67.221 E51.17346
G1 X19.088 Y67.016 E51.20206
G1 X18.193 Y66.553 E51.23557
G1 X17.569 Y65.882 E51.26605
G1 X17.037 Y64.99 E51.30059
G1 X16.887 Y64.085 E51.33111
G1 X16.867 Y28.503 E52.51457
G1 X17.072 Y27.668 E52.54317
G1 X17.535 Y26.773 E52.57668
G1 X18.206 Y26.149 E52.60716
G0 F6000 X18.445 Y26.473
G1 F1200 X19.238 Y26 E52.63787
G1 X20.069 Y25.862 E52.66589
G1 X36.565 Y25.847 E53.21454
G1 X37.303 Y26.028 E53.23982
G1 X38.097 Y26.438 E53.26954
G1 X38.635 Y27.019 E53.29588
G1 X39.117 Y27.825 E53.32711
G1 X39.267 Y28.847 E53.36147
G1 X39.251 Y52.656 E54.15336
G1 X39.142 Y53.568 E54.18391
G1 X38.803 Y54.76 E54.22513
G1 X38.318 Y55.718 E54.26084
G1 X37.73 Y56.532 E54.29424
G1 X36.947 Y57.311 E54.33097
G1 X36.056 Y57.951 E54.36746
G1 X34.754 Y58.529 E54.41484
G1 X34.001 Y58.721 E54.44069
G1 X32.766 Y58.847 E54.48198
G1 X30.76 Y58.847 E54.5487
G1 X30.749 Y60.142 E54.59177
G1 X30.599 Y61.313 E54.63104
G1 X30.35 Y62.174 E54.66085
G1 X29.752 Y63.462 E54.70808
G1 X29.003 Y64.455 E54.74945
G1 X28.26 Y65.178 E54.78393
G1 X27.206 Y65.923 E54.82686
G1 X25.931 Y66.47 E54.873
G1 X24.973 Y66.706 E54.90582
G1 X23.766 Y66.821 E54.94615
G1 X19.969 Y66.821 E55.07243
G1 X19.231 Y66.64 E55.09771
G1 X18.438 Y66.23 E55.1274
G1 X17.893 Y65.643 E55.15404
G1 X17.42 Y64.85 E55.18475
G1 X17.282 Y64.019 E55.21277
G1 X17.267 Y28.549 E56.39251
G1 X17.448 Y27.811 E56.41778
G1 X17.858 Y27.018 E56.44747
G1 X18.445 Y26.473 E56.47411
G0 F6000 X18.684 Y26.797
G1 F1200 X19.378 Y26.383 E56.50099
G1 X20.135 Y26.257 E56.52651
G1 X36.515 Y26.247 E57.07132
G1 X37.164 Y26.406 E57.09354
G1 X37.851 Y26.761 E57.11926
G1 X38.314 Y27.261 E57.14193
G1 X38.733 Y27.962 E57.16909
G1 X38.867 Y28.847 E57.19886
G1 X38.854 Y52.611 E57.98925
G1 X38.757 Y53.459 E58.01764
G1 X38.429 Y54.613 E58.05754
G1 X37.961 Y55.537 E58.09199
G1 X37.448 Y56.248 E58.12115
G1 X36.665 Y57.027 E58.15789
G1 X35.856 Y57.602 E58.1909
G1 X34.655 Y58.141 E58.23469
G1 X33.902 Y58.333 E58.26053
G1 X32.766 Y58.447 E58.2985
G1 X30.362 Y58.447 E58.37846
G1 X30.352 Y60.093 E58.43321
